X:1
T:Bed Of Roses. Roose.0036, The
L:1/8
Q:1/2=60
M:2/4
I:linebreak $
K:A
V:1 treble 
V:1
 c/>d/ | e>f ea | fe dc | B/A/B/c/ dc | B/A/G/F/ Ec/d/ | e>f ea | fe dc | df e/d/c/B/ | A3 :| %9
 A/B/ |$ cA AA | cA c/A/c/A/ | dB BB | dB d/B/d/B/ | ec cc | ec e/c/e/c/ | f>a g/e/f/^d/ | %17
 e3!D.C.! |] %18
